SF_Symbols/bubble.middle.bottom.fill.svg

<?xml version="1.0" encoding="UTF-8"?>
<svg xmlns="http://www.w3.org/2000/svg" xmlns:xlink="http://www.w3.org/1999/xlink" width="24" height="24" viewBox="0 0 24 24" version="1.1">
<g id="surface1">
<path style=" stroke:none;fill-rule:nonzero;fill:rgb(100%,100%,100%);fill-opacity:1;" d="M 11.980469 22.699219 C 12.214844 22.699219 12.441406 22.632812 12.65625 22.5 C 12.878906 22.375 13.09375 22.136719 13.300781 21.78125 L 15.230469 18.5625 L 18.707031 18.5625 C 19.742188 18.5625 20.613281 18.378906 21.324219 18.011719 C 22.03125 17.636719 22.566406 17.09375 22.925781 16.386719 C 23.296875 15.675781 23.480469 14.8125 23.480469 13.792969 L 23.480469 5.8125 C 23.480469 4.792969 23.296875 3.925781 22.925781 3.21875 C 22.566406 2.511719 22.03125 1.972656 21.324219 1.605469 C 20.613281 1.230469 19.742188 1.042969 18.707031 1.042969 L 5.292969 1.042969 C 4.257812 1.042969 3.386719 1.230469 2.675781 1.605469 C 1.96875 1.972656 1.429688 2.511719 1.0625 3.21875 C 0.703125 3.925781 0.519531 4.792969 0.519531 5.8125 L 0.519531 13.792969 C 0.519531 14.8125 0.703125 15.675781 1.0625 16.386719 C 1.429688 17.09375 1.96875 17.636719 2.675781 18.011719 C 3.386719 18.378906 4.257812 18.5625 5.292969 18.5625 L 8.730469 18.5625 L 10.65625 21.78125 C 10.863281 22.136719 11.078125 22.375 11.292969 22.5 C 11.515625 22.632812 11.742188 22.699219 11.980469 22.699219 Z M 11.980469 22.699219 "/>
</g>
</svg>

<svg xmlns="http://www.w3.org/2000/svg" width="24" height="24"><path style="stroke:none;fill-rule:nonzero;fill:#fff;fill-opacity:1" d="M11.98 22.7c.235 0 .461-.067.676-.2.223-.125.438-.363.645-.719l1.93-3.218h3.476c1.035 0 1.906-.184 2.617-.551a3.7 3.7 0 0 0 1.602-1.625c.37-.711.554-1.575.554-2.594v-7.98c0-1.02-.183-1.887-.554-2.594a3.635 3.635 0 0 0-1.602-1.614c-.71-.375-1.582-.562-2.617-.562H5.293c-1.035 0-1.906.187-2.617.562A3.7 3.7 0 0 0 1.062 3.22C.704 3.926.52 4.793.52 5.813v7.98c0 1.02.183 1.883.542 2.594.368.707.907 1.25 1.614 1.625.71.367 1.582.55 2.617.55H8.73l1.926 3.22c.207.355.422.593.637.718.223.133.45.2.687.2Zm0 0"/></svg>
